svgs/sharp-light/h4.svg

<svg xmlns="http://www.w3.org/2000/svg" viewBox="0 0 640 512"><!--! Font Awesome Pro 6.6.0 by @fontawesome - https://fontawesome.com License - https://fontawesome.com/license (Commercial License) Copyright 2024 Fonticons, Inc. --><path d="M32 64l0 16 0 160 256 0 0-160 0-16 32 0 0 16 0 176 0 176 0 16-32 0 0-16 0-160L32 272l0 160 0 16L0 448l0-16L0 256 0 80 0 64l32 0zm608 0l0 16 0 352 0 16-32 0 0-16 0-128-216 0-19.4 0 3.7-19L418.8 64l32.6 0-40 208L608 272l0-192 0-16 32 0z"/></svg>

<svg xmlns="http://www.w3.org/2000/svg" viewBox="0 0 640 512"><!--! Font Awesome Pro 6.4.2 by @fontawesome - https://fontawesome.com License - https://fontawesome.com/license (Commercial License) Copyright 2023 Fonticons, Inc. --><path d="M32 64V80 240H288V80 64h32V80 256 432v16H288V432 272H32V432v16H0V432 256 80 64H32zm608 0V80 432v16H608V432 304H392 372.6l3.7-19L418.8 64h32.6l-40 208H608V80 64h32z"/></svg>
